X: 369
T: Pas Russe, Or the Russian Dance
%R: march, reel
Z: 2014 John Chambers <jc:trillian.mit.edu>
B: Preston "Twenty four Country Dances for the Year 1799" p.165 #1
F: http://www.vwml.org/browse/browse-collections-dance-tune-books/browse-prestons1799# 2014-8-10
M: C|
L: 1/8
K: D
a3f |\
g2eg f2d2 | e2d2 e2a2 |\
d2d2 d2ef | g2e2 f2d2 |\
e2d2 e2a2 | d4 :|
|: d2ef |\
g2e2 f2d2 | c2B2 A2A2 |\
d2d2 d2ef | g2e2 f2d2 |\
c2B2 A2a2 | d4 :|
% - - - - - - - - - - - - - - - - - - - - - - - - -
%%begintext align
%% Foot it & hands 4 half round .|
%% Foot it & hands 4 back again :|
%% Lead down the middle foot it :|.
%% Turn Partner with both hands :|:
%%endtext
% - - - - - - - - - - - - - - - - - - - - - - - - -

%%sep 1 1 500
%%sep 1 1 500
